X: 8
T: The Blacksmith's
R: reel
M: 4/4
L: 1/8
K: Fmaj
D3 E || F2 CF A,FCF | FEFG EFGE | F2 CF A,FCF | AdcB AFGE |
F2 CF A,FCF | FEFG EFGE | F2 CF A,FCF | AdcB AFAB ||
c/c/c cd cAFA | c/c/c dc BAGB | AF F/F/F FGAc | cdcB AGFG |
Acc=B cAFA | c/c/c dc BAGA | Bcdc BAGF | EFGF ECDE |]


Tune 3636	Setting 23482

